src/lib/packages/icons/src/assets/filled/tv-play.svg

<svg width="24" height="24" viewBox="0 0 24 24" fill="none" xmlns="http://www.w3.org/2000/svg">
<path d="M17 21.75H7C6.586 21.75 6.25 21.414 6.25 21C6.25 20.586 6.586 20.25 7 20.25H17C17.414 20.25 17.75 20.586 17.75 21C17.75 21.414 17.414 21.75 17 21.75ZM21 7.23096V14.77C21 16.924 20 18.001 18 18.001H6C4 18.001 3 16.924 3 14.77V7.23096C3 5.07696 4 4 6 4H18C20 4 21 5.07696 21 7.23096ZM14.582 10.2539L11.4331 8.3269C10.8061 7.9439 10 8.39298 10 9.12598V12.8721C10 13.6051 10.8061 14.0549 11.4331 13.6709L14.582 11.7439C15.14 11.4039 15.14 10.5959 14.582 10.2539Z" fill="currentColor"/>
</svg>

<svg xmlns="http://www.w3.org/2000/svg" width="24" height="24" fill="none"><path fill="currentColor" d="M17 21.75H7a.75.75 0 0 1 0-1.5h10a.75.75 0 0 1 0 1.5Zm4-14.519v7.539c0 2.154-1 3.231-3 3.231H6c-2 0-3-1.077-3-3.231V7.231C3 5.077 4 4 6 4h12c2 0 3 1.077 3 3.231Zm-6.418 3.023-3.149-1.927A.941.941 0 0 0 10 9.126v3.746a.94.94 0 0 0 1.433.799l3.149-1.927a.872.872 0 0 0 0-1.49Z"/></svg>
